Images/.svg/Logo - Invert.svg

<?xml version="1.0" encoding="UTF-8"?>
<svg id="Layer_1" data-name="Layer 1" xmlns="http://www.w3.org/2000/svg" viewBox="0 0 286.6 306.5">
  <defs>
    <style>
      .cls-1, .cls-2 {
        fill: #fff;
      }

      .cls-3 {
        isolation: isolate;
      }

      .cls-2 {
        stroke: #fff;
        stroke-miterlimit: 10;
      }
    </style>
  </defs>
  <g class="cls-3">
    <path class="cls-1" d="M98.2,140.09L30.4,51.09v89H0V.09H28.4L94,86.29V.09h30.4V140.09h-26.2Z"/>
  </g>
  <g class="cls-3">
    <path class="cls-1" d="M89.07,306.09l-31.2-46.59h-25.17v46.59H.67V160.49H67.23c17.33,0,30.82,4.23,40.46,12.69,9.64,8.46,14.46,20.25,14.46,35.36v.42c0,11.79-2.88,21.39-8.63,28.81-5.76,7.42-13.28,12.86-22.57,16.33l35.57,52h-37.44Zm.62-95.89c0-6.93-2.22-12.13-6.66-15.6-4.44-3.46-10.61-5.2-18.51-5.2h-31.82v41.81h32.45c7.9,0,13.97-1.87,18.2-5.62,4.23-3.74,6.34-8.74,6.34-14.98v-.42Z"/>
  </g>
  <circle class="cls-1" cx="213.1" cy="236.5" r="70"/>
  <path class="cls-2" d="M216.1,28.5c23.16,0,42,18.84,42,42s-18.84,42-42,42-42-18.84-42-42,18.84-42,42-42m0-28c-38.66,0-70,31.34-70,70s31.34,70,70,70,70-31.34,70-70S254.76,.5,216.1,.5h0Z"/>
</svg>

<?xml version="1.0" encoding="utf-8"?>
<!-- Generator: Adobe Illustrator 26.5.0, SVG Export Plug-In . SVG Version: 6.00 Build 0)  -->
<svg version="1.1" id="Layer_1" xmlns="http://www.w3.org/2000/svg" xmlns:xlink="http://www.w3.org/1999/xlink" x="0px" y="0px"
	 viewBox="0 0 286.6 306.5" style="enable-background:new 0 0 286.6 306.5;" xml:space="preserve">
<style type="text/css">
	.st0{fill:#FFFFFF;}
</style>
<g>
	<path class="st0" d="M98.2,140.1l-67.8-89v89H0V0.1h28.4L94,86.3V0.1h30.4v140H98.2z"/>
</g>
<g>
	<path class="st0" d="M89.1,306.1l-31.2-46.6H32.7v46.6h-32V160.5h66.6c17.3,0,30.8,4.2,40.5,12.7s14.5,20.2,14.5,35.4v0.4
		c0,11.8-2.9,21.4-8.6,28.8c-5.8,7.4-13.3,12.9-22.6,16.3l35.6,52L89.1,306.1L89.1,306.1z M89.7,210.2c0-6.9-2.2-12.1-6.7-15.6
		c-4.4-3.5-10.6-5.2-18.5-5.2H32.7v41.8h32.4c7.9,0,14-1.9,18.2-5.6c4.2-3.7,6.3-8.7,6.3-15L89.7,210.2L89.7,210.2z"/>
</g>
<circle class="st0" cx="213.1" cy="236.5" r="70"/>
<path class="st0" d="M216.1,28.5c23.2,0,42,18.8,42,42s-18.8,42-42,42s-42-18.8-42-42S192.9,28.5,216.1,28.5 M216.1,0.5
	c-38.7,0-70,31.3-70,70s31.3,70,70,70s70-31.3,70-70S254.8,0.5,216.1,0.5L216.1,0.5z"/>
</svg>
